img/toolbar/underline.svg

<?xml version="1.0" encoding="UTF-8" standalone="no"?>
<svg
   xmlns:dc="http://purl.org/dc/elements/1.1/"
   xmlns:cc="http://creativecommons.org/ns#"
   xmlns:rdf="http://www.w3.org/1999/02/22-rdf-syntax-ns#"
   xmlns:svg="http://www.w3.org/2000/svg"
   xmlns="http://www.w3.org/2000/svg"
   xmlns:sodipodi="http://sodipodi.sourceforge.net/DTD/sodipodi-0.dtd"
   xmlns:inkscape="http://www.inkscape.org/namespaces/inkscape"
   viewBox="0 0 24 24"
   version="1.1"
   id="svg11776"
   sodipodi:docname="underline.svg"
   width="24"
   height="24"
   inkscape:version="0.92.3 (2405546, 2018-03-11)">
  <metadata
     id="metadata11782">
    <rdf:RDF>
      <cc:Work
         rdf:about="">
        <dc:format>image/svg+xml</dc:format>
        <dc:type
           rdf:resource="http://purl.org/dc/dcmitype/StillImage" />
        <dc:title></dc:title>
      </cc:Work>
    </rdf:RDF>
  </metadata>
  <defs
     id="defs11780" />
  <sodipodi:namedview
     pagecolor="#ffffff"
     bordercolor="#666666"
     borderopacity="1"
     objecttolerance="10"
     gridtolerance="10"
     guidetolerance="10"
     inkscape:pageopacity="0"
     inkscape:pageshadow="2"
     inkscape:window-width="1374"
     inkscape:window-height="974"
     id="namedview11778"
     showgrid="true"
     inkscape:zoom="29.5"
     inkscape:cx="13.452996"
     inkscape:cy="13.136359"
     inkscape:window-x="46"
     inkscape:window-y="40"
     inkscape:window-maximized="0"
     inkscape:current-layer="svg11776"
     inkscape:snap-global="false">
    <inkscape:grid
       type="xygrid"
       id="grid11784" />
  </sodipodi:namedview>
  <path
     inkscape:connector-curvature="0"
     d="m 6.7749993,5.7483127 h 0.8500001 v 4.4004213 c 0,2.426281 1.9066558,4.400419 4.2499996,4.400419 2.343344,0 4.25,-1.974138 4.25,-4.400419 V 5.7483127 h 0.849999 V 3.9881445 h -3.825 V 5.7483127 H 14 v 4.4004213 c -6.15e-4,2.932976 -4.250615,2.932976 -4.2500005,0 V 5.7483127 H 10.6 V 3.9881445 H 6.7749993 Z M 17.399998,16.309321 H 6.3499992 v 1.76017 H 17.399998 Z"
     id="path13195"
     style="fill:#2e5999;fill-opacity:1;stroke-width:0.99999982"
     sodipodi:nodetypes="ccssscccccccccccccccccc" />
</svg>

<svg height="24" viewBox="0 0 24 24" width="24" xmlns="http://www.w3.org/2000/svg">
  <path d="m6.77 5.75h.85v4.4c0 2.43 1.91 4.4 4.25 4.4s4.25-1.97 4.25-4.4v-4.4h.85v-1.76h-3.83v1.76h.86v4.4c0 2.93-4.25 2.93-4.25 0v-4.4h.85v-1.76h-3.83zm10.63 10.56h-11.05v1.76h11.05z" fill="#2e5999"/>
</svg>
